X:1
T:The Canaan Land of Perfect Love
T:The Canaan Land of Perfect Love
T:Henry Lake Gilmour
T:Ella M. Parks, 1902
T:Public Domain Courtesy of the Cyber Hymnal™
T:Public Domain Courtesy of the Cyber Hymnal™
C:Henry Lake Gilmour
Z:Public Domain
Z:Courtesy of the Cyber Hymnal™
%%score ( 1 2 ) ( 3 4 )
L:1/8
Q:1/4=92
M:3/4
K:Ab
V:1 treble 
V:2 treble 
V:3 bass 
V:4 bass 
V:1
 E2 | [EA]>[EA] [EA]2 [Ec]2 | [FB]>[DF] [DF]2 [DA]2 | [DG]>[DF] [DE]2 [CA]2 | %4
w: 1.~A|good- ly land mine|eyes be- hold, With|bount- eous fruit- age|
w: 2.~What|tho’ I hear of|gi- ants strong, And|ci- ties walled that|
w: 3.~As|on I go new|views I gain, Far|reach- ing fields, and|
 [EG]>[=DA] !fermata![_DB]2 [DE]2 | [CA]>[EA] [EA]2 [Ec]2 | [DB]>[DF] [DF]2 [FA]2 | %7
w: rich- ly blest; With|pas- tures green, and|wa- ters still, Where|
w: rise to Heav’n; My|heav’n- ly Josh- ua|still leads on, His|
w: mount- ains grand; My|soul ex- ults in|fu- ture joys Which|
 [EG]>[EA] [EB]2 [Gd]2 | [Gc]>[GB] !fermata![EA]2 A2 | [Fd]>[Fd] [Fd]2 [FA]2 | %10
w: wea- ry hearts may|sweet- ly rest; The|wild- er- ness left|
w: might- y strength to|me is giv’n; In|ar- mor bright with|
w: wait me in this|Ca- naan land. No|lack I know, since|
 [Ec]>[Ec] [Ec]2 [Ae]2 | [Ge]>[GB] [GB]2 [EG]2 | [=DG]>[DF] E2 E2 | [Ec]>[DB] [CA]2 [EA]2 | %14
w: far be- hind, With|ea- ger heart I|press a- head, For|God hath giv- en|
w: sword di- vine And|faith that o- ver-|com- eth all, My|Cap- tain’s or- ders|
w: He doth lead In|vales with milk and|hon- ey blest; But|yet I know there|
 [Ed]>[Ec] [EB]2 [EB]2 | [Ee]>[Ee] [_Ge]3 [Fd] | [Ec]>[EB] [EA]2 ||"^Refrain" [EA]2 | %18
w: un- to me Each|foot of land my|feet shall tread.||
w: I o- bey, While|Jer- i- chos in|ru- ins fall.|Lord,|
w: still re- mains A|bound- less land to|be pos- sessed.||
 [EG]>[EA] [EB]2 [Ed]2 | [EG]>[EB] [EA]2 [Ac]2 | [GB]>[GB] [A=d]2 [Ad]2 | %21
w: |||
w: lead me on to|fields un- trod, The|mount- ain heights that|
w: |||
 [Ac]>[AB] !fermata![Ge]2 !fermata![Gd]2 | [Ec]>[DB] [CA]2 [EA]2 | [Ed]>[Ec] [EB]2 [EB]2 | %24
w: |||
w: tower a- bove; A|vi- sion give me|of the land, The|
w: |||
 [Ee]>[Ee] [_Ge]3 [Fd] | [Ec]>[EB] [EA]2 |] %26
w: ||
w: Ca- naan land of|per- fect love.|
w: ||
V:2
 E2 | x6 | x6 | x6 | x6 | x6 | x6 | x6 | x4 (A_G) | x6 | x6 | x6 | x2 E2 E2 | x6 | x6 | x6 | x4 || %17
 x2 | x6 | x6 | x6 | x6 | x6 | x6 | x6 | x4 |] %26
V:3
 E,2 | [A,,C]>[A,,C] [A,,C]2 [A,,A,]2 | [D,A,]>[D,A,] [D,A,]2 [D,B,]2 | %3
 [E,B,]>[E,A,] [E,G,]2 [F,A,]2 | [B,,B,]>[B,,A,] !fermata![E,G,]2 [E,G,]2 | %5
 [A,,A,]>[A,,C] [A,,C]2 [A,,A,]2 | [D,F,]>[D,B,] [D,B,]2 [D,B,]2 | [E,B,]>[E,C] [E,D]2 [E,B,]2 | %8
 [E,E]>[E,D] !fermata![A,,C]2 A,2 | [D,A,]>[D,A,] [D,A,]2 [D,A,]2 | %10
 [A,,A,]>[A,,A,] [A,,A,]2 [A,C]2 | [E,B,]>[E,E] [E,E]2 [E,B,]2 | [B,,B,]>[B,,A,] [E,G,]2 [E,G,]2 | %13
 [A,,A,]>[A,,E,] [A,,E,]2 [C,A,]2 | [B,,G,]>[A,,A,] [E,G,]2 [D,G,]2 | %15
 [C,A,]>[B,,G,] [A,,A,]3 [D,A,] | [E,A,]>[E,D] !fermata![A,,C]2 || [A,,C]2 | %18
 [E,B,]>[E,C] [E,D]2 [E,B,]2 | [E,B,]>[E,D] [A,,C]2 [A,E]2 | [B,E]>[B,E] [F,F]2 [F,F]2 | %21
 [B,E]>[B,=D] !fermata![E,B,]2 !fermata![E,B,]2 | [A,,A,]>[A,,E,] [A,,E,]2 [C,A,]2 | %23
 [B,,G,]>[A,,A,] [E,G,]2 [D,G,]2 | [C,A,]>[B,,G,] [A,,A,]3 [D,A,] | %25
 [E,A,]>[E,D] !fermata![A,,C]2 |] %26
V:4
 E,2 | x6 | x6 | x6 | x6 | x6 | x6 | x6 | x4 A,2 | x6 | x6 | x6 | x6 | x6 | x6 | x6 | x4 || x2 | %18
 x6 | x6 | x6 | x6 | x6 | x6 | x6 | x4 |] %26

